X:2
T:Moving to the Mill
R:Reel
C:Anselm Lingnau
S:25 May 1994
G:SSL 9
H:These two tunes were written as a farewell present to Monika
when she moved from Frankfurt to the `Proitzer Mühle' (Mill of Proitze)
after finishing her studies.
K:G
M:C|
E:6
D2|"G"G2 GB d2 Bd|"C"eg g/f/g "G"d2 dB|"C"c2 ce "D"A2 AB|"Am"cAEA "D"FDEF|
"G"G2 GB d2 Bd|"C"eg g/f/g "G"d2 Bd|"C"eg g/f/g "G"dgBg|"D"cAdF "G"G2::ef|
"G"gG G/F/G dG G/F/G|"C"efgd "G"BdBG|\
"Am"cE E/^D/E "G"B=D D/^C/D|"Am"ABcA "D"FDEF|
"G"Gd d/c/d "D/F#"Fc c/B/c|"Em"EFGA "D"Bcdc|"G"Bg g/f/g dgBd|"D"cAdF "G"G2:|
